src/resources/mandatory/M051.svg

<svg height="264.567" width="264.568" xmlns="http://www.w3.org/2000/svg" xmlns:xlink="http://www.w3.org/1999/xlink"><clipPath id="a"><path d="m44.87 471.68h228.24v228.241h-228.24z"/></clipPath><g clip-path="url(#a)" fill-rule="evenodd" transform="matrix(1.33333 0 0 -1.33333 -79.703 913.35)"><path d="m0 0c-54.79 0-99.213 44.438-99.213 99.177 0 54.81 44.423 99.248 99.213 99.248s99.213-44.438 99.213-99.248c0-54.739-44.423-99.177-99.213-99.177" fill="#005387" transform="translate(158.99 486.588)"/><g fill="#ecece7"><path d="m0 0h125.318l-1.23-1.457-1.276-1.428-1.307-1.413-1.338-1.366h-115l-1.337 1.366-1.308 1.413-1.276 1.428z" transform="translate(96.324 533.954)"/><path d="m0 0 .744.03.73.076.729.137.714.197.7.244.683.303.654.35.638.394.593.441.562.471.517.531.486.562.441.592.394.638.35.653.305.684.242.698.182.714.137.728.092.746.03.728v12.757l-.03.41-.092.395-.137.379-.197.349-.243.334-.289.273-.318.244-.35.197-.38.137-.395.09-.411.032-.394-.032-.396-.09-.38-.137-.365-.197-.319-.244-.288-.273-.243-.334-.198-.349-.136-.379-.092-.395-.015-.41v-12.757l-.03-.471-.076-.47-.137-.456-.183-.441-.228-.425-.273-.38-.319-.364-.365-.319-.38-.274-.425-.227-.441-.183-.456-.136-.471-.076-.471-.03h-31.181l-.472.03-.471.076-.47.136-.441.183-.411.227-.394.274-.35.319-.319.364-.274.38-.228.425-.182.441-.137.456-.076.47-.03.471v12.757l-.03.41-.077.395-.152.379-.197.349-.228.334-.289.273-.334.244-.349.197-.38.137-.395.09-.396.032-.41-.032-.395-.09-.38-.137-.35-.197-.334-.244-.273-.273-.243-.334-.198-.349-.137-.379-.091-.395-.03-.41v-12.757l.03-.728.076-.746.137-.728.198-.714.242-.698.305-.684.334-.653.395-.638.441-.592.486-.562.532-.531.562-.471.593-.441.623-.394.668-.35.669-.303.699-.244.729-.197.73-.137.729-.076.745-.03z" transform="translate(164.522 536.794)"/><path d="m0 0h14.907l-8.995-8.398h9.026l12.809 11.936-12.809 11.936h-9.026l8.995-8.398h-14.907z" transform="translate(207.769 577.874)"/><path d="m0 0 4.97 26.804 12.019-14.366.319-.334.35-.304.379-.274.411-.227.426-.183 21.046-7.836.485-.152.502-.091.502-.045.501.015.501.076.486.136.472.183.456.243.41.273.395.334.335.38.303.395.258.44.198.471.152.486.092.486.045.516-.015.501-.076.501-.137.486-.183.471-.243.456-.273.41-.334.395-.38.334-.396.303-.44.259-.471.197-19.922 7.426-13.645 16.295-.365.38-.395.334-.426.288-.47.228-.487.182-.502.122-20.3 3.766-.456.061-.472.015-.471-.03-.456-.091-.44-.122-.441-.182-20.363-9.461-.44-.243-.426-.304-.38-.334-.349-.38-.304-.41-.243-.455-.198-.471-.151-.486-.076-.501-.031-.516v-22.461l.015-.501.092-.501.137-.487.197-.47.243-.441.289-.41.349-.379.38-.335.411-.303.44-.243.471-.197.486-.137.502-.076.502-.031.501.031.501.076.486.137.471.197.441.243.41.303.38.335.335.379.304.41.243.441.182.47.152.487.076.501.03.501v19.575l14.831 6.91-5.683-30.722-.076-.471-.015-.471v-27.699l-7.294-26.728-.106-.517-.061-.546-.015-.532.06-.547.107-.531.167-.501.213-.501.273-.471.319-.44.35-.396.41-.364.426-.318.471-.274.501-.228.502-.166.531-.123.533-.045.546-.015.532.06.532.107.516.167.502.213.456.273.441.319.41.349.365.409.319.426.274.471.212.501.183.501 7.46 27.396.107.456.061.44.015.471v25.179l.167-.486.198-.471.243-.455.304-.41.334-.395.365-.35.41-.319.425-.272 22.08-12.529v-25.392l.03-.547.076-.531.152-.517.182-.501.244-.486.303-.455.334-.425.38-.38.426-.334.456-.304.471-.243.516-.182.518-.152.531-.076.547-.03.532.03.532.076.532.152.502.182.47.243.456.304.425.334.381.38.334.425.304.455.243.486.197.501.137.517.076.531.03.547v28.383l-.03.547-.076.547-.151.516-.183.516-.259.472-.288.455-.349.425-.395.38-.427.349-.455.289z" transform="translate(170.585 607.03)"/><path d="m0 0 .03.713.076.699.137.699.197.683.244.668.289.638.349.623.395.592.44.563.486.515.517.486.563.425.592.395.609.35.653.304.653.242.684.198.698.137.715.075.699.031.714-.031.699-.075.7-.137.683-.198.668-.242.639-.304.623-.35.593-.395.547-.425.532-.486.47-.515.441-.563.395-.592.35-.623.288-.638.259-.668.182-.683.137-.699.091-.699.03-.713-.03-.699-.091-.714-.137-.698-.182-.683-.259-.653-.288-.654-.35-.622-.395-.577-.441-.562-.47-.516-.532-.486-.547-.441-.593-.395-.623-.349-.639-.288-.668-.259-.683-.182-.7-.136-.699-.091-.714-.031-.699.031-.715.091-.698.136-.684.182-.653.259-.653.288-.609.349-.592.395-.563.441-.517.486-.486.516-.44.562-.395.577-.349.622-.289.654-.244.653-.197.683-.137.698-.076.714z" transform="translate(160.374 657.328)"/></g></g></svg>

<?xml version="1.0" encoding="UTF-8" standalone="no"?>
<svg
   height="264.56601"
   width="264.56735"
   version="1.1"
   id="svg8"
   xmlns="http://www.w3.org/2000/svg"
   xmlns:svg="http://www.w3.org/2000/svg">
  <defs
     id="defs8" />
  <clipPath
     id="a">
    <path
       d="M 44.87,471.68 H 273.11 V 699.921 H 44.87 Z"
       id="path1" />
  </clipPath>
  <g
     clip-path="url(#a)"
     fill-rule="evenodd"
     transform="matrix(1.33333,0,0,-1.33333,-79.702467,913.34838)"
     id="g8">
    <path
       d="m 0,0 c -54.79,0 -99.213,44.438 -99.213,99.177 0,54.81 44.423,99.248 99.213,99.248 54.79,0 99.213,-44.438 99.213,-99.248 C 99.213,44.438 54.79,0 0,0"
       fill="#005387"
       transform="translate(158.99,486.588)"
       id="path2" />
    <g
       fill="#ecece7"
       id="g7">
      <path
         d="m 0,0 h 125.318 l -1.23,-1.457 -1.276,-1.428 -1.307,-1.413 -1.338,-1.366 h -115 L 3.83,-4.298 2.522,-2.885 1.246,-1.457 Z"
         transform="translate(96.324,533.954)"
         id="path3" />
      <path
         d="m 0,0 0.744,0.03 0.73,0.076 0.729,0.137 0.714,0.197 0.7,0.244 0.683,0.303 0.654,0.35 0.638,0.394 0.593,0.441 0.562,0.471 0.517,0.531 0.486,0.562 0.441,0.592 0.394,0.638 0.35,0.653 0.305,0.684 0.242,0.698 0.182,0.714 0.137,0.728 0.092,0.746 0.03,0.728 v 12.757 l -0.03,0.41 -0.092,0.395 -0.137,0.379 -0.197,0.349 -0.243,0.334 -0.289,0.273 -0.318,0.244 -0.35,0.197 -0.38,0.137 -0.395,0.09 L 7.081,25.514 6.687,25.482 6.291,25.392 5.911,25.255 5.546,25.058 5.227,24.814 4.939,24.541 4.696,24.207 4.498,23.858 4.362,23.479 4.27,23.084 4.255,22.674 V 9.917 L 4.225,9.446 4.149,8.976 4.012,8.52 3.829,8.079 3.601,7.654 3.328,7.274 3.009,6.91 2.644,6.591 2.264,6.317 1.839,6.09 1.398,5.907 0.942,5.771 0.471,5.695 0,5.665 h -31.181 l -0.472,0.03 -0.471,0.076 -0.47,0.136 -0.441,0.183 -0.411,0.227 -0.394,0.274 -0.35,0.319 -0.319,0.364 -0.274,0.38 -0.228,0.425 -0.182,0.441 -0.137,0.456 -0.076,0.47 -0.03,0.471 v 12.757 l -0.03,0.41 -0.077,0.395 -0.152,0.379 -0.197,0.349 -0.228,0.334 -0.289,0.273 -0.334,0.244 -0.349,0.197 -0.38,0.137 -0.395,0.09 -0.396,0.032 -0.41,-0.032 -0.395,-0.09 -0.38,-0.137 -0.35,-0.197 -0.334,-0.244 -0.273,-0.273 -0.243,-0.334 -0.198,-0.349 -0.137,-0.379 -0.091,-0.395 -0.03,-0.41 V 9.917 l 0.03,-0.728 0.076,-0.746 0.137,-0.728 0.198,-0.714 0.242,-0.698 0.305,-0.684 0.334,-0.653 0.395,-0.638 0.441,-0.592 0.486,-0.562 0.532,-0.531 0.562,-0.471 0.593,-0.441 0.623,-0.394 0.668,-0.35 0.669,-0.303 0.699,-0.244 0.729,-0.197 0.73,-0.137 0.729,-0.076 0.745,-0.03 z"
         transform="translate(164.522,536.794)"
         id="path4" />
      <path
         d="M 0,0 H 14.907 L 5.912,-8.398 h 9.026 L 27.747,3.538 14.938,15.474 H 5.912 L 14.907,7.076 H 0 Z"
         transform="translate(207.769,577.874)"
         id="path5" />
      <path
         d="m 0,0 4.97,26.804 12.019,-14.366 0.319,-0.334 0.35,-0.304 0.379,-0.274 0.411,-0.227 0.426,-0.183 21.046,-7.836 0.485,-0.152 0.502,-0.091 0.502,-0.045 0.501,0.015 0.501,0.076 0.486,0.136 0.472,0.183 0.456,0.243 0.41,0.273 0.395,0.334 0.335,0.38 0.303,0.395 0.258,0.44 0.198,0.471 0.152,0.486 0.092,0.486 0.045,0.516 -0.015,0.501 -0.076,0.501 -0.137,0.486 -0.183,0.471 -0.243,0.456 -0.273,0.41 -0.334,0.395 -0.38,0.334 -0.396,0.303 -0.44,0.259 -0.471,0.197 -19.922,7.426 -13.645,16.295 -0.365,0.38 -0.395,0.334 -0.426,0.288 -0.47,0.228 -0.487,0.182 -0.502,0.122 -20.3,3.766 -0.456,0.061 -0.472,0.015 -0.471,-0.03 -0.456,-0.091 -0.44,-0.122 -0.441,-0.182 -20.363,-9.461 -0.44,-0.243 -0.426,-0.304 -0.38,-0.334 -0.349,-0.38 -0.304,-0.41 -0.243,-0.455 -0.198,-0.471 -0.151,-0.486 -0.076,-0.501 -0.031,-0.516 V 4.389 l 0.015,-0.501 0.092,-0.501 0.137,-0.487 0.197,-0.47 0.243,-0.441 0.289,-0.41 0.349,-0.379 0.38,-0.335 0.411,-0.303 0.44,-0.243 0.471,-0.197 0.486,-0.137 0.502,-0.076 0.502,-0.031 0.501,0.031 0.501,0.076 0.486,0.137 0.471,0.197 0.441,0.243 0.41,0.303 0.38,0.335 0.335,0.379 0.304,0.41 0.243,0.441 0.182,0.47 0.152,0.487 0.076,0.501 0.03,0.501 v 19.575 l 14.831,6.91 -5.683,-30.722 -0.076,-0.471 -0.015,-0.471 v -27.699 l -7.294,-26.728 -0.106,-0.517 -0.061,-0.546 -0.015,-0.532 0.06,-0.547 0.107,-0.531 0.167,-0.501 0.213,-0.501 0.273,-0.471 0.319,-0.44 0.35,-0.396 0.41,-0.364 0.426,-0.318 0.471,-0.274 0.501,-0.228 0.502,-0.166 0.531,-0.123 0.533,-0.045 0.546,-0.015 0.532,0.06 0.532,0.107 0.516,0.167 0.502,0.213 0.456,0.273 0.441,0.319 0.41,0.349 0.365,0.409 0.319,0.426 0.274,0.471 0.212,0.501 0.183,0.501 7.46,27.396 0.107,0.456 0.061,0.44 0.015,0.471 v 25.179 l 0.167,-0.486 0.198,-0.471 0.243,-0.455 0.304,-0.41 0.334,-0.395 0.365,-0.35 0.41,-0.319 0.425,-0.272 22.08,-12.529 v -25.392 l 0.03,-0.547 0.076,-0.531 0.152,-0.517 0.182,-0.501 0.244,-0.486 0.303,-0.455 0.334,-0.425 0.38,-0.38 0.426,-0.334 0.456,-0.304 0.471,-0.243 0.516,-0.182 0.518,-0.152 0.531,-0.076 0.547,-0.03 0.532,0.03 0.532,0.076 0.532,0.152 0.502,0.182 0.47,0.243 0.456,0.304 0.425,0.334 0.381,0.38 0.334,0.425 0.304,0.455 0.243,0.486 0.197,0.501 0.137,0.517 0.076,0.531 0.03,0.547 v 28.383 l -0.03,0.547 -0.076,0.547 -0.151,0.516 -0.183,0.516 -0.259,0.472 -0.288,0.455 -0.349,0.425 -0.395,0.38 -0.427,0.349 -0.455,0.289 z"
         transform="translate(170.585,607.03)"
         id="path6" />
      <path
         d="M 0,0 0.03,0.713 0.106,1.412 0.243,2.111 0.44,2.794 0.684,3.462 0.973,4.1 1.322,4.723 1.717,5.315 2.157,5.878 2.643,6.393 3.16,6.879 3.723,7.304 4.315,7.699 4.924,8.049 5.577,8.353 6.23,8.595 6.914,8.793 7.612,8.93 8.327,9.005 9.026,9.036 9.74,9.005 10.439,8.93 11.139,8.793 11.822,8.595 12.49,8.353 13.129,8.049 13.752,7.699 14.345,7.304 14.892,6.879 15.424,6.393 15.894,5.878 16.335,5.315 16.73,4.723 17.08,4.1 17.368,3.462 17.627,2.794 17.809,2.111 17.946,1.412 18.037,0.713 18.067,0 18.037,-0.699 17.946,-1.413 17.809,-2.111 17.627,-2.794 17.368,-3.447 17.08,-4.101 16.73,-4.723 16.335,-5.3 15.894,-5.862 15.424,-6.378 14.892,-6.864 14.345,-7.305 13.752,-7.7 13.129,-8.049 12.49,-8.337 11.822,-8.596 11.139,-8.778 10.439,-8.914 9.74,-9.005 9.026,-9.036 8.327,-9.005 7.612,-8.914 6.914,-8.778 6.23,-8.596 5.577,-8.337 4.924,-8.049 4.315,-7.7 3.723,-7.305 3.16,-6.864 2.643,-6.378 2.157,-5.862 1.717,-5.3 1.322,-4.723 0.973,-4.101 0.684,-3.447 0.44,-2.794 0.243,-2.111 0.106,-1.413 0.03,-0.699 Z"
         transform="translate(160.374,657.328)"
         id="path7" />
    </g>
  </g>
</svg>
